svg/u1f194.svg

<svg viewBox="0 0 128 128" xmlns="http://www.w3.org/2000/svg">
  <g>
    <path d="M116,4H12c-4.42,0-8,3.58-8,8v104c0,4.42,3.58,8,8,8h104c4.42,0,8-3.58,8-8V12 C124,7.58,120.42,4,116,4z" fill="#8E24AA"/>
    <path d="M109.7,4H11.5C7.37,4.03,4.03,7.37,4,11.5v97.9c-0.01,4.14,3.34,7.49,7.48,7.5c0.01,0,0.01,0,0.02,0 h98.1c4.14,0.01,7.49-3.34,7.5-7.48c0-0.01,0-0.01,0-0.02V11.5c0.09-4.05-3.13-7.41-7.18-7.5C109.85,4,109.77,4,109.7,4z" fill="#AB47BC"/>
    <path d="M39.7,12.9c0-2.3-1.6-3-10.8-2.7c-7.7,0.3-11.5,1.2-13.8,4 s-2.9,8.5-3,15.3c0,4.8,0,9.3,2.5,9.3c3.4,0,3.4-7.9,6.2-12.3C26.2,17.8,39.7,15.9,39.7,12.9z" opacity="0.3" fill="#FAFAFA" enable-background="new "/>
    <g>
      <path d="M29.19,36.87h10.35v54.89H29.19V36.87z" fill="#FAFAFA"/>
      <path d="M52.04,36.87h18.55c5.72,0,10.71,1.15,14.95,3.45c4.24,2.3,7.51,5.52,9.81,9.66 c2.3,4.14,3.45,8.92,3.45,14.34c0,5.42-1.15,10.2-3.45,14.34c-2.3,4.14-5.57,7.36-9.81,9.66c-4.24,2.3-9.23,3.45-14.95,3.45H52.04 V36.87z M70.13,81.95c5.93,0,10.45-1.57,13.57-4.71c3.12-3.14,4.68-7.45,4.68-12.92c0-5.47-1.56-9.78-4.68-12.92 c-3.12-3.14-7.64-4.71-13.57-4.71h-7.74v35.27H70.13z" fill="#FAFAFA"/>
    </g>
  </g>
</svg>

<svg viewBox="0 0 128 128" xmlns="http://www.w3.org/2000/svg">
  <defs/>
  <path d="M116,4 L12,4 C7.58,4 4,7.58 4,12 L4,116 C4,120.42 7.58,124 12,124 L116,124 C120.42,124 124,120.42 124,116 L124,12 C124,7.58 120.42,4 116,4 Z" fill="#8E24AA"/>
  <path d="M109.7,4 L11.5,4 C7.37,4.03 4.03,7.37 4,11.5 L4,109.4 C3.99,113.54 7.34,116.89 11.48,116.9 C11.49,116.9 11.49,116.9 11.5,116.9 L109.6,116.9 C113.74,116.91 117.09,113.56 117.1,109.42 C117.1,109.41 117.1,109.41 117.1,109.4 L117.1,11.5 C117.19,7.45 113.97,4.09 109.92,4 C109.85,4 109.77,4 109.7,4 Z" fill="#AB47BC"/>
  <path d="M39.7,12.9 C39.7,10.6 38.1,9.9 28.9,10.2 C21.2,10.5 17.4,11.4 15.1,14.2 C12.8,17 12.2,22.7 12.1,29.5 C12.1,34.3 12.1,38.8 14.6,38.8 C18,38.8 18,30.9 20.8,26.5 C26.2,17.8 39.7,15.9 39.7,12.9 Z" fill="#FAFAFA" opacity="0.3"/>
  <path d="M29.19,36.87 L39.54,36.87 L39.54,91.76 L29.19,91.76 L29.19,36.87 Z" fill="#FAFAFA"/>
  <path d="M52.04,36.87 L70.59,36.87 C76.31,36.87 81.3,38.02 85.54,40.32 C89.78,42.62 93.05,45.84 95.35,49.98 C97.65,54.12 98.8,58.9 98.8,64.32 C98.8,69.74 97.65,74.52 95.35,78.66 C93.05,82.8 89.78,86.02 85.54,88.32 C81.3,90.62 76.31,91.77 70.59,91.77 L52.04,91.77 L52.04,36.87 Z M70.13,81.95 C76.06,81.95 80.58,80.38 83.7,77.24 C86.82,74.1 88.38,69.79 88.38,64.32 C88.38,58.85 86.82,54.54 83.7,51.4 C80.58,48.26 76.06,46.69 70.13,46.69 L62.39,46.69 L62.39,81.96 L70.13,81.96 Z" fill="#FAFAFA"/>
</svg>
